icons/midnadark/actions/24/snap-intersection.svg

<svg xmlns="http://www.w3.org/2000/svg" viewBox="0 0 22 22"><defs><clipPath><path d="m0 706.47h1490.93v-706.47h-1490.93v706.47"/></clipPath><clipPath><path d="m22.2 686.12h1447.73v-667.19h-1447.73v667.19"/></clipPath></defs><path transform="translate(0-.002)" d="m3 3v1h1v-1h-1m15.293 0l-6 6h-3.293v3.293l-6 6 .707.707 6-6h3.293v-3.293l6-6-.707-.707m-13.293 2v1h1v-1h-1m2 2v1h1v-1h-1m7 7v1h1v-1h-1zm2 2v1h1v-1h-1m2 2v1h1v-1h-1" fill="#fff"/></svg>

<?xml version="1.0" encoding="UTF-8" standalone="no"?>
<!-- Created with Inkscape (http://www.inkscape.org/) -->

<svg
   xmlns:dc="http://purl.org/dc/elements/1.1/"
   xmlns:cc="http://creativecommons.org/ns#"
   xmlns:rdf="http://www.w3.org/1999/02/22-rdf-syntax-ns#"
   xmlns:svg="http://www.w3.org/2000/svg"
   xmlns="http://www.w3.org/2000/svg"
   xmlns:sodipodi="http://sodipodi.sourceforge.net/DTD/sodipodi-0.dtd"
   xmlns:inkscape="http://www.inkscape.org/namespaces/inkscape"
   width="22"
   height="22"
   id="svg3869"
   version="1.1"
   inkscape:version="0.91 r13725"
   sodipodi:docname="snap-intersection.svg">
  <defs
     id="defs3871">
    <linearGradient
       id="linearGradient4290-48">
      <stop
         id="stop4292-0"
         offset="0"
         style="stop-color:#a5a5a5;stop-opacity:1;" />
      <stop
         id="stop4294-0"
         offset="1"
         style="stop-color:#f5f2f5;stop-opacity:1;" />
    </linearGradient>
    <inkscape:perspective
       id="perspective4146-9"
       inkscape:persp3d-origin="12 : 8 : 1"
       inkscape:vp_z="24 : 12 : 1"
       inkscape:vp_y="0 : 1000 : 0"
       inkscape:vp_x="0 : 12 : 1"
       sodipodi:type="inkscape:persp3d" />
    <inkscape:perspective
       id="perspective4146"
       inkscape:persp3d-origin="12 : 8 : 1"
       inkscape:vp_z="24 : 12 : 1"
       inkscape:vp_y="0 : 1000 : 0"
       inkscape:vp_x="0 : 12 : 1"
       sodipodi:type="inkscape:persp3d" />
    <inkscape:perspective
       sodipodi:type="inkscape:persp3d"
       inkscape:vp_x="0 : 12 : 1"
       inkscape:vp_y="0 : 1000 : 0"
       inkscape:vp_z="24 : 12 : 1"
       inkscape:persp3d-origin="12 : 8 : 1"
       id="perspective4146-9-1" />
    <inkscape:perspective
       sodipodi:type="inkscape:persp3d"
       inkscape:vp_x="0 : 12 : 1"
       inkscape:vp_y="0 : 1000 : 0"
       inkscape:vp_z="24 : 12 : 1"
       inkscape:persp3d-origin="12 : 8 : 1"
       id="perspective4146-96" />
    <clipPath
       clipPathUnits="userSpaceOnUse"
       id="clipPath16">
      <path
         d="m 0,706.465 1490.926,0 L 1490.926,0 0,0 0,706.465 Z"
         id="path18"
         inkscape:connector-curvature="0" />
    </clipPath>
    <clipPath
       clipPathUnits="userSpaceOnUse"
       id="clipPath24">
      <path
         d="m 22.1953,686.117 1447.7347,0 0,-667.1902 -1447.7347,0 0,667.1902 z"
         id="path26"
         inkscape:connector-curvature="0" />
    </clipPath>
  </defs>
  <sodipodi:namedview
     id="base"
     pagecolor="#ffffff"
     bordercolor="#666666"
     borderopacity="1.0"
     inkscape:pageopacity="0.0"
     inkscape:pageshadow="2"
     inkscape:zoom="15.999999"
     inkscape:cx="-1.8750029"
     inkscape:cy="8.59847"
     inkscape:document-units="px"
     inkscape:current-layer="layer1"
     showgrid="true"
     fit-margin-top="0"
     fit-margin-left="0"
     fit-margin-right="0"
     fit-margin-bottom="0"
     inkscape:window-width="1366"
     inkscape:window-height="633"
     inkscape:window-x="0"
     inkscape:window-y="33"
     inkscape:window-maximized="1"
     inkscape:showpageshadow="false"
     inkscape:snap-bbox="true"
     inkscape:object-nodes="true">
    <inkscape:grid
       type="xygrid"
       id="grid4132" />
    <sodipodi:guide
       position="4,18"
       orientation="18,0"
       id="guide4138" />
    <sodipodi:guide
       position="5,3"
       orientation="0,18"
       id="guide4140" />
    <sodipodi:guide
       position="20,2.0000174"
       orientation="-18,0"
       id="guide4142" />
    <sodipodi:guide
       position="2,21"
       orientation="0,-18"
       id="guide4144" />
    <sodipodi:guide
       position="3,19.000017"
       orientation="16,0"
       id="guide4146" />
    <sodipodi:guide
       position="2,4"
       orientation="0,16"
       id="guide4148" />
    <sodipodi:guide
       position="21,20"
       orientation="-16,0"
       id="guide4150" />
    <sodipodi:guide
       position="2,20"
       orientation="0,-16"
       id="guide4152" />
  </sodipodi:namedview>
  <metadata
     id="metadata3874">
    <rdf:RDF>
      <cc:Work
         rdf:about="">
        <dc:format>image/svg+xml</dc:format>
        <dc:type
           rdf:resource="http://purl.org/dc/dcmitype/StillImage" />
        <dc:title />
      </cc:Work>
    </rdf:RDF>
  </metadata>
  <g
     inkscape:label="Capa 1"
     inkscape:groupmode="layer"
     id="layer1"
     transform="translate(-326,-534.3622)">
    <g
       transform="translate(-95.71429,8.57146)"
       id="layer1-0"
       inkscape:label="Capa 1"
       style="fill:#ffffff;fill-opacity:1">
      <path
         id="rect3344"
         transform="translate(421.71429,525.79074)"
         d="M 3,3 3,4 4,4 4,3 3,3 Z m 15.292969,0 -6,6 L 9,9 l 0,3.292969 -6,6 L 3.7070312,19 l 6,-6 L 13,13 l 0,-3.2929688 6,-6 L 18.292969,3 Z M 5,5 5,6 6,6 6,5 5,5 Z M 7,7 7,8 8,8 8,7 7,7 Z m 7,7 0,1 1,0 0,-1 -1,0 z m 2,2 0,1 1,0 0,-1 -1,0 z m 2,2 0,1 1,0 0,-1 -1,0 z"
         style="opacity:1;fill:#ffffff;fill-opacity:1;stroke:none;stroke-width:2.79999995;stroke-miterlimit:4;stroke-dasharray:none;stroke-opacity:0.55026455"
         inkscape:connector-curvature="0" />
    </g>
  </g>
</svg>
